svgs/light/hat-chef.svg

<svg xmlns="http://www.w3.org/2000/svg" viewBox="0 0 512 512"><!-- Font Awesome Pro 6.0.0-alpha2 by @fontawesome - https://fontawesome.com License - https://fontawesome.com/license (Commercial License) --><path d="M416.001 32C395.126 32.125 374.876 39 358.251 51.75C334.876 20.5 298 0 256.001 0C214 0 177.126 20.5 153.751 51.75C124.751 29.5 85.751 25.75 53.126 42C20.376 58.125 -0.124 91.5 0.001 128C0.001 160.863 39.657 280.785 56.538 330.344C60.958 343.32 73.112 352 86.821 352H425.18C438.889 352 451.044 343.32 455.463 330.344C472.344 280.785 512.001 160.863 512.001 128C512.001 75 469.001 32 416.001 32ZM426.063 320H371.512L399.688 179.125C401.422 170.469 395.797 162.031 387.141 160.312C378.422 158.469 370.047 164.188 368.313 172.875L338.887 320H272.001V151.156C272.001 142.312 264.844 135.156 256.001 135.156S240.001 142.312 240.001 151.156V320H173.114L143.688 172.875C141.969 164.188 133.626 158.5 124.86 160.312C116.204 162.031 110.579 170.469 112.313 179.125L140.489 320H85.938C67.919 262.266 32.001 145.045 32.001 128C32.001 92.625 60.626 64 96.001 64C109.876 64.125 123.376 68.75 134.376 77.25L160.126 96.75L179.376 70.875C197.876 46.125 225.751 32 256.001 32S314.126 46.125 332.626 70.875L351.876 96.75L377.626 77.25C388.626 68.75 402.126 64.125 416.001 64C451.376 64 480.001 92.625 480.001 128C480.001 145.045 444.083 262.266 426.063 320ZM432.001 384C423.157 384 416.001 391.156 416.001 400V464C416.001 472.812 408.829 480 400.001 480H112.001C103.172 480 96.001 472.812 96.001 464V400C96.001 391.156 88.844 384 80.001 384S64.001 391.156 64.001 400V464C64.001 490.469 85.532 512 112.001 512H400.001C426.469 512 448.001 490.469 448.001 464V400C448.001 391.156 440.844 384 432.001 384Z"/></svg>

<svg xmlns="http://www.w3.org/2000/svg" viewBox="0 0 512 512"><!--! Font Awesome Pro 6.3.0 by @fontawesome - https://fontawesome.com License - https://fontawesome.com/license (Commercial License) Copyright 2023 Fonticons, Inc. --><path d="M416 32c-20.88 .125-41.13 7-57.75 19.75C334.9 20.5 297.1 0 256 0C213.1 0 177.1 20.5 153.8 51.75c-29-22.25-68-25.1-100.6-9.75C20.38 58.13-.125 91.5 0 128c0 32.86 39.66 152.8 56.54 202.3C60.96 343.3 73.11 352 86.82 352h338.4c13.71 0 25.86-8.68 30.28-21.66C472.3 280.8 512 160.9 512 128C512 75 469 32 416 32zM426.1 320h-54.55l28.18-140.9c1.734-8.656-3.891-17.09-12.55-18.81c-8.719-1.844-17.09 3.875-18.83 12.56L338.9 320H272V151.2c0-8.844-7.156-16-16-16s-16 7.156-16 16V320H173.1L143.7 172.9C141.1 164.2 133.6 158.5 124.9 160.3C116.2 162 110.6 170.5 112.3 179.1L140.5 320H85.94C67.92 262.3 32 145 32 128c0-35.38 28.62-64 64-64c13.88 .125 27.38 4.75 38.38 13.25l25.75 19.5l19.25-25.88C197.9 46.13 225.8 32 256 32s58.13 14.12 76.63 38.88l19.25 25.88l25.75-19.5C388.6 68.75 402.1 64.13 416 64c35.38 0 64 28.62 64 64C480 145 444.1 262.3 426.1 320zM432 384c-8.844 0-16 7.156-16 16v64c0 8.812-7.172 16-16 16h-288C103.2 480 96 472.8 96 464v-64C96 391.2 88.84 384 80 384S64 391.2 64 400v64C64 490.5 85.53 512 112 512h288c26.47 0 48-21.53 48-48v-64C448 391.2 440.8 384 432 384z"/></svg>
